X: 05023
T: ELLEN MARIE
C: Bob McQuillen 30 Oct'80
B: Bob's Note Book 5 #23
%R: jig
Z: 2021 John Chambers <jc:trillian.mit.edu>
M: 6/8
L: 1/8
K: Em
B, \
| E2B, EGA | Bde d2e | dBG BGE | GEG D2B, |\
| E2B, EGA | Bde def | ged BAB | GEE E2 :|
|: g \
| gfe  edB | ded d2g | gfe dBG | ABA F2D |\
| B,EE GEE | GAB GEG | BdB AGE | B,EE E2 :|
%%begintext align
%% We don't
%% see as much of Ellen since she moved
%% out of Harrisville and away from
%% the Monday Night Dance, but this
%% is your tune anyway, Ellen -
%%endtext

%%sep 1 1 500

%%sep 1 1 500

